X: 20214
T: Joe Bane's
R: polka
M: 2/4
K: Gmajor
GA Bc|~d2 dB|~c2 cA|Bd GE|
DG Bc|d2 B>d|c>B AB|Gd ed|
GA Bc|~d2 dB|~c2 cA|Bd G>E|
DG Bc|d2 B>d|c>B AB|G2 Gd||
|:gd ed|gd ed|BG gd|BG ed|
gd ed|gd BG|eg fa|1 g2 gd:|2 g2 D2||

